X:1
T:Title
%%score { ( 1 2 ) | ( 3 4 ) }
L:1/8
Q:1/4=99
M:6/8
K:Eb
V:1 treble nm="Grand Piano"
V:2 treble 
V:3 bass 
V:4 bass 
V:1
 z3 .A3 | c3 B3 | [Ge][GB][EG] [=EA]2 [EG] | [EG]3 .[DF]3 | [DA][CA][DA] G2 G |[M:7/8] ccc =B3 B | %6
[M:3/4] z2 z .B3 | [EGB]6 |] %8
V:2
 GGG z CF | z2 E z AG | x6 | x6 | x6 |[M:7/8] x7 |[M:3/4] BB .B2 C[DAB] | x6 |] %8
V:3
 [E,B,E][E,E][E,CE] .[F,B,D]2 [B,D] | .[A,CE]3 [G,E][F,D][E,E] | [E,B,][E,B,][E,B,] [C,C]2 [C,B,] | %3
 [F,=A,]3 .[B,,B,]3 | [B,,F,][B,,F,][B,,B,] [E,B,E]2 [E,B,E] | %5
[M:7/8][K:treble] [A,E][A,CE][A,EF] [=A,E_G]3 [A,EG] |[M:3/4] z2 z F z2[K:bass] | E,6 |] %8
V:4
 x6 | x6 | x6 | x6 | x6 |[M:7/8][K:treble] x7 |[M:3/4] [B,EG][B,DF] [B,EG] [B,A]2[K:bass] B,, | %7
 x6 |] %8

